X: 75
T:Tom Edwards
M:6/8
L:1/8
Q:130
C:Trad
S:Blodau'r Grug Collection Vol. 3
A:Wales
Z:brian_martin12345@yahoo.com
K:G
GAG BGB|dBd gdB|GAG BGB|dBdg3:||gbg ege|faf dfd|!
efg fed|ed^cd3:||=cdcc2a|BcBB2g|ABc BAG|AGFG3:||

